packages/match-icons/product/svg/understand.svg

<svg fill="none" height="32" viewBox="0 0 32 32" width="32" xmlns="http://www.w3.org/2000/svg" xmlns:xlink="http://www.w3.org/1999/xlink"><clipPath id="a"><path d="m0 0h32v32h-32z"/></clipPath><g clip-path="url(#a)" fill="#394762"><path d="m28 18h-2c-.5523 0-1 .4477-1 1s.4477 1 1 1h2c.5523 0 1-.4477 1-1s-.4477-1-1-1z"/><path d="m23.3 12.3c-.8165-.9076-1.2781-2.0794-1.3-3.3 0-1.32608.5268-2.59785 1.4645-3.53553.9376-.93769 2.2094-1.46447 3.5355-1.46447s2.5979.52678 3.5355 1.46447c.9377.93768 1.4645 2.20945 1.4645 3.53553-.0219 1.2206-.4835 2.3924-1.3 3.3-.7302.842-1.2784 1.8259-1.61 2.89-.0447.2311-.1695.4391-.3524.5872-.1829.1482-.4122.2271-.6476.2228h-2.19c-.2382.0035-.4699-.0782-.6532-.2304s-.3063-.3648-.3468-.5996c-.2937-1.0719-.8427-2.0566-1.6-2.87zm.7-3.3c.0259.73943.3088 1.4467.8 2 .793.8707 1.4049 1.8905 1.8 3h.7c.5445-1.0536 1.1803-2.0574 1.9-3 .4912-.5533.7741-1.26057.8-2 0-.79565-.3161-1.55871-.8787-2.12132s-1.3257-.87868-2.1213-.87868-1.5587.31607-2.1213.87868-.8787 1.32567-.8787 2.12132z"/><path d="m7 24h18c.2652 0 .5196.1054.7071.2929s.2929.4419.2929.7071-.1054.5196-.2929.7071-.4419.2929-.7071.2929h-18c-.26522 0-.51957-.1054-.70711-.2929-.18753-.1875-.29289-.4419-.29289-.7071s.10536-.5196.29289-.7071c.18754-.1875.44189-.2929.70711-.2929zm-1-5c0 .2652.10536.5196.29289.7071.18754.1875.44189.2929.70711.2929h12c.2652 0 .5196-.1054.7071-.2929s.2929-.4419.2929-.7071-.1054-.5196-.2929-.7071-.4419-.2929-.7071-.2929h-12c-.26522 0-.51957.1054-.70711.2929-.18753.1875-.29289.4419-.29289.7071zm1-5h10c.2652 0 .5196-.1054.7071-.2929s.2929-.4419.2929-.7071-.1054-.5196-.2929-.7071-.4419-.2929-.7071-.2929h-10c-.26522 0-.51957.1054-.70711.2929-.18753.1875-.29289.4419-.29289.7071s.10536.5196.29289.7071c.18754.1875.44189.2929.70711.2929zm24 9c-.2652 0-.5196.1054-.7071.2929s-.2929.4419-.2929.7071v5.5c0 .1326-.0527.2598-.1464.3536-.0938.0937-.221.1464-.3536.1464h-27c-.13261 0-.25979-.0527-.35355-.1464-.09377-.0938-.14645-.221-.14645-.3536v-21c0-.13261.05268-.25979.14645-.35355.09376-.09377.22094-.14645.35355-.14645h14.5c.2652 0 .5196-.10536.7071-.29289.1875-.18754.2929-.44189.2929-.70711s-.1054-.51957-.2929-.70711c-.1875-.18753-.4419-.29289-.7071-.29289h-14.5c-.66304 0-1.29893.26339-1.767767.73223-.468841.46884-.732233 1.10473-.732233 1.76777v21c0 .663.263392 1.2989.732233 1.7678.468837.4688 1.104727.7322 1.767767.7322h27c.663 0 1.2989-.2634 1.7678-.7322.4688-.4689.7322-1.1048.7322-1.7678v-5.5c0-.2652-.1054-.5196-.2929-.7071s-.4419-.2929-.7071-.2929z"/></g></svg>

<svg width="32" height="32" viewBox="0 0 32 32" fill="none" xmlns="http://www.w3.org/2000/svg">
<g clip-path="url(#clip0)">
<path d="M28 18H26C25.4477 18 25 18.4477 25 19C25 19.5523 25.4477 20 26 20H28C28.5523 20 29 19.5523 29 19C29 18.4477 28.5523 18 28 18Z" fill="#394762"/>
<path d="M23.3 12.3C22.4835 11.3924 22.0219 10.2206 22 9C22 7.67392 22.5268 6.40215 23.4645 5.46447C24.4021 4.52678 25.6739 4 27 4C28.3261 4 29.5979 4.52678 30.5355 5.46447C31.4732 6.40215 32 7.67392 32 9C31.9781 10.2206 31.5165 11.3924 30.7 12.3C29.9698 13.142 29.4216 14.1259 29.09 15.19C29.0453 15.4211 28.9205 15.6291 28.7376 15.7772C28.5547 15.9254 28.3254 16.0043 28.09 16H25.9C25.6618 16.0035 25.4301 15.9218 25.2468 15.7696C25.0635 15.6174 24.9405 15.4048 24.9 15.17C24.6063 14.0981 24.0573 13.1134 23.3 12.3V12.3ZM24 9C24.0259 9.73943 24.3088 10.4467 24.8 11C25.593 11.8707 26.2049 12.8905 26.6 14H27.3C27.8445 12.9464 28.4803 11.9426 29.2 11C29.6912 10.4467 29.9741 9.73943 30 9C30 8.20435 29.6839 7.44129 29.1213 6.87868C28.5587 6.31607 27.7956 6 27 6C26.2044 6 25.4413 6.31607 24.8787 6.87868C24.3161 7.44129 24 8.20435 24 9V9Z" fill="#394762"/>
<path d="M7 24H25C25.2652 24 25.5196 24.1054 25.7071 24.2929C25.8946 24.4804 26 24.7348 26 25C26 25.2652 25.8946 25.5196 25.7071 25.7071C25.5196 25.8946 25.2652 26 25 26H7C6.73478 26 6.48043 25.8946 6.29289 25.7071C6.10536 25.5196 6 25.2652 6 25C6 24.7348 6.10536 24.4804 6.29289 24.2929C6.48043 24.1054 6.73478 24 7 24ZM6 19C6 19.2652 6.10536 19.5196 6.29289 19.7071C6.48043 19.8946 6.73478 20 7 20H19C19.2652 20 19.5196 19.8946 19.7071 19.7071C19.8946 19.5196 20 19.2652 20 19C20 18.7348 19.8946 18.4804 19.7071 18.2929C19.5196 18.1054 19.2652 18 19 18H7C6.73478 18 6.48043 18.1054 6.29289 18.2929C6.10536 18.4804 6 18.7348 6 19ZM7 14H17C17.2652 14 17.5196 13.8946 17.7071 13.7071C17.8946 13.5196 18 13.2652 18 13C18 12.7348 17.8946 12.4804 17.7071 12.2929C17.5196 12.1054 17.2652 12 17 12H7C6.73478 12 6.48043 12.1054 6.29289 12.2929C6.10536 12.4804 6 12.7348 6 13C6 13.2652 6.10536 13.5196 6.29289 13.7071C6.48043 13.8946 6.73478 14 7 14ZM31 23C30.7348 23 30.4804 23.1054 30.2929 23.2929C30.1054 23.4804 30 23.7348 30 24V29.5C30 29.6326 29.9473 29.7598 29.8536 29.8536C29.7598 29.9473 29.6326 30 29.5 30H2.5C2.36739 30 2.24021 29.9473 2.14645 29.8536C2.05268 29.7598 2 29.6326 2 29.5V8.5C2 8.36739 2.05268 8.24021 2.14645 8.14645C2.24021 8.05268 2.36739 8 2.5 8H17C17.2652 8 17.5196 7.89464 17.7071 7.70711C17.8946 7.51957 18 7.26522 18 7C18 6.73478 17.8946 6.48043 17.7071 6.29289C17.5196 6.10536 17.2652 6 17 6H2.5C1.83696 6 1.20107 6.26339 0.732233 6.73223C0.263392 7.20107 0 7.83696 0 8.5L0 29.5C0 30.163 0.263392 30.7989 0.732233 31.2678C1.20107 31.7366 1.83696 32 2.5 32H29.5C30.163 32 30.7989 31.7366 31.2678 31.2678C31.7366 30.7989 32 30.163 32 29.5V24C32 23.7348 31.8946 23.4804 31.7071 23.2929C31.5196 23.1054 31.2652 23 31 23Z" fill="#394762"/>
</g>
<defs>
<clipPath id="clip0">
<rect width="32" height="32" fill="white"/>
</clipPath>
</defs>
</svg>
